X: 33527
T: Rainy Day, The
R: reel
M: 4/4
K: Adorian
EAAG ~A3B|cA~A2 eAcA|EGGF ~G3A|BGdG eGdG|
EAAG ~A3B|cBAB cdef|~g3e dBGB|1 cABG A3G:|2 cABG A3d||
|:eaag ~a3b|ca~a2 cabg|eggf ~g3a|bg~g2 bgag|
eaag ~a3b|cbag edef|~g3e dBGB|1 cABG A3d:|2 cABG A3G||
EAAG ~A3B|cded gedc|BGGF ~G2dG|~G2dG eGdG|
EAAG ~A3B|cBAB cdef|~g3e dBGA|1 B2dB A3G:|2 B2dB A3d||
|:eaag ~a3g|ba~a2 bgag|eggf ~g3a|bg~g2 bgag|
eaag aged|(3Bcd ef g2ag|eaag egdG|1 B2dB A3d:|2 B2dB A3G||

